icon/pk/mute.svg

<svg viewBox="0 0 48 48" fill="none" xmlns="http://www.w3.org/2000/svg" height="1em" width="1em">
  <path d="M24 44C35.0457 44 44 35.0457 44 24C44 12.9543 35.0457 4 24 4C12.9543 4 4 12.9543 4 24C4 35.0457 12.9543 44 24 44Z" fill="#2F88FF" stroke="black" stroke-width="4" stroke-linejoin="round"/>
  <path d="M29 14V34C25.15 34 22.2892 28.9106 22.2892 28.9106H18.1C17.4925 28.9106 17 28.4132 17 27.7995V20.1171C17 19.5034 17.4925 19.006 18.1 19.006H22.2892C22.2892 19.006 25.15 14 29 14Z" fill="#43CCF8" stroke="white" stroke-width="4" stroke-linejoin="round"/>
</svg>

<svg width="48" height="48" fill="none" xmlns="http://www.w3.org/2000/svg"><path d="M24 44c11.046 0 20-8.954 20-20S35.046 4 24 4 4 12.954 4 24s8.954 20 20 20Z" fill="#2F88FF" stroke="#000" stroke-width="4" stroke-linejoin="round"/><path d="M29 14v20c-3.85 0-6.71-5.09-6.71-5.09H18.1c-.608 0-1.1-.497-1.1-1.11v-7.683c0-.614.492-1.111 1.1-1.111h4.19S25.15 14 29 14Z" fill="#43CCF8" stroke="#fff" stroke-width="4" stroke-linejoin="round"/></svg>
